!!!OTL: Noch ein Lindenschmidston. / zum geistl. Lied: 'Am Weihnachtsabend in der Still'
!!!ARE: Europa, Mitteleuropa, Deutschland
!!!SCT: A0377B
!!!YEM: Copyright 1995, estate of Helmut Schaffrath.
**kern
*M3/2
*met(3)
*clefC4
*k[]
*a:
=1
{2A
2A
2A
=2
1A
2G
=3
1c
2B
=4
1.c}
=5||
{2B
2A
2A
=6
1d
2d
=7
1A
2B
=8
1A}
{2A
=9
1d
2d
=10
1B
2A/
=11
(<2.G
4A/
2B)
=12
1.G}
=13||
{2G
2c
2d
=14
1e
2d
=15
1c
2B
=16
1.c}
=17||
{2B
2A
2A
=18
2.E
4F#
2G#
=19
!LO:TX:a:t=P:coloured notes:problem
2A
!LO:TX:a:t=P:coloured notes:problem
1B
=20
!LO:TX:a:t=P:1a in the source:problem
!LO:N:vis=1
1.A}
==
!!!GTL: Einige historisch-politische Lieder
!!!AGN: Romanze, Ballade, Lied, Personenlied
!! Werlin 1646 hs. Sammlung S. 1589.
!!!ONB: ESAC (Essen Associative Code) Database: ALTDEU
!!!AMT: simple triple
!!!AIN: vox
!!!EED: Helmut Schaffrath
!!!EEV: 1.0
!!!RDF**kern: < = below
!!!URL-scan: https://rosdok.uni-rostock.de/mcrviewer/recordIdentifier/rosdok_ppn738218359/iview2/phys_0536.iview2?x=-948.0634874302073&y=885.085253105266&scale=0.3669911794666851&rotation=0&layout=singlePageLayout&logicalDiv=log_0014
!!!ENC: Anna Maria Matuszewska
!!!EEV: 2024/14/03
*-
